public/YellowCall.svg

<svg width="278" height="287" viewBox="0 0 278 287" fill="none" xmlns="http://www.w3.org/2000/svg">
<path d="M254.073 286.957C272.781 286.957 288 271.753 288 253.064V207.874C288 203.009 284.886 198.695 280.269 197.161L212.575 174.566C209.261 173.452 205.64 173.959 202.724 175.879L173.944 195.042C143.462 180.524 107.294 144.391 92.7601 113.941L111.943 85.1893C113.875 82.2873 114.362 78.6578 113.257 75.3484L90.6393 7.72222C89.1051 3.11133 84.7866 0 79.9162 0H33.9267C15.2188 0 0 15.0445 0 33.7336C0 163.898 123.778 286.957 254.073 286.957Z" fill="#F79E1B"/>
</svg>

<svg xmlns="http://www.w3.org/2000/svg" width="278" height="287" fill="none"><path fill="#F79E1B" d="M254.073 286.957c18.708 0 33.927-15.204 33.927-33.893v-45.19c0-4.865-3.114-9.179-7.731-10.713l-67.694-22.595c-3.314-1.114-6.935-.607-9.851 1.313l-28.78 19.163c-30.482-14.518-66.65-50.651-81.184-81.101l19.183-28.752a11.3 11.3 0 0 0 1.314-9.84L90.639 7.721A11.29 11.29 0 0 0 79.916 0h-45.99C15.22 0 0 15.045 0 33.734c0 130.164 123.778 253.223 254.073 253.223"/></svg>
